assets/icons/extension-puzzle.svg

<svg width="18" height="18" viewBox="0 0 18 18" fill="none" xmlns="http://www.w3.org/2000/svg">
<path d="M2.30063 15.6994C1.98283 15.3816 1.78228 15.0483 1.69897 14.6997C1.61257 14.3479 1.62029 14.0101 1.72211 13.6861C1.82393 13.356 1.9998 13.0659 2.24972 12.816C2.40708 12.6586 2.5737 12.5383 2.74957 12.455C2.92235 12.3686 3.12137 12.2992 3.34661 12.2467C3.5595 12.1943 3.68909 12.1079 3.73538 11.9875C3.78474 11.8641 3.75235 11.7453 3.63818 11.6312L1.92575 9.91874C1.47219 9.46518 1.24695 9.00544 1.25003 8.53954C1.25312 8.06746 1.48607 7.60001 1.94889 7.13719L3.18462 5.90147C3.2957 5.79039 3.41294 5.75953 3.53636 5.8089C3.65978 5.8521 3.74772 5.98014 3.80017 6.19304C3.85262 6.42445 3.9205 6.62809 4.00381 6.80396C4.08712 6.97367 4.20745 7.1372 4.36481 7.29455C4.61473 7.54448 4.90477 7.72035 5.23491 7.82217C5.56197 7.9209 5.89983 7.92862 6.24849 7.84531C6.60023 7.75892 6.93346 7.55836 7.24818 7.24364C7.5629 6.92893 7.76191 6.59724 7.84522 6.24858C7.93161 5.89684 7.9239 5.55898 7.82208 5.235C7.72026 4.90486 7.54438 4.61483 7.29446 4.3649C7.1371 4.20754 6.97357 4.08721 6.80387 4.0039C6.63109 3.91751 6.42899 3.84809 6.19758 3.79563C5.98468 3.74318 5.85509 3.65679 5.80881 3.53646C5.76253 3.40995 5.79492 3.29116 5.906 3.18008L7.14173 1.94435C7.60146 1.48462 8.06737 1.25321 8.53945 1.25012C9.00844 1.24395 9.46972 1.46765 9.92328 1.92121L11.6357 3.63365C11.7499 3.74781 11.8671 3.78175 11.9875 3.73547C12.1109 3.6861 12.1973 3.55651 12.2466 3.3467C12.3022 3.11838 12.3731 2.91782 12.4595 2.74503C12.5428 2.56916 12.6616 2.40409 12.8159 2.24982C13.0689 1.99681 13.3589 1.82094 13.686 1.7222C14.0131 1.6173 14.3525 1.60804 14.7042 1.69443C15.0529 1.77774 15.3861 1.9783 15.7039 2.2961C16.0186 2.61082 16.2192 2.94405 16.3056 3.29579C16.3889 3.64445 16.3796 3.98385 16.2778 4.31399C16.176 4.63797 15.9986 4.92646 15.7456 5.17947C15.5913 5.33374 15.4278 5.45407 15.255 5.54047C15.0791 5.62377 14.877 5.6932 14.6487 5.74874C14.4389 5.7981 14.3093 5.8845 14.2599 6.00792C14.2136 6.12825 14.2476 6.2455 14.3617 6.35966L16.0742 8.07209C16.5308 8.52874 16.756 8.99156 16.7499 9.46055C16.7437 9.92954 16.5108 10.3939 16.051 10.8536L14.8153 12.0894C14.7042 12.2004 14.587 12.2344 14.4635 12.1912C14.3432 12.1449 14.2568 12.0153 14.2044 11.8024C14.1519 11.571 14.0825 11.3689 13.9961 11.1961C13.9128 11.0264 13.7925 10.8629 13.6351 10.7055C13.3852 10.4556 13.0951 10.2797 12.765 10.1779C12.4379 10.073 12.1001 10.0653 11.7514 10.1548C11.4028 10.2381 11.0711 10.4371 10.7564 10.7518C10.4416 11.0665 10.2411 11.3998 10.1547 11.7515C10.0683 12.0971 10.076 12.4349 10.1778 12.7651C10.2797 13.0952 10.4555 13.3853 10.7054 13.6352C10.8628 13.7925 11.0263 13.9129 11.196 13.9962C11.3719 14.0795 11.5755 14.1474 11.807 14.1998C12.0199 14.2523 12.1479 14.3402 12.1911 14.4636C12.2374 14.584 12.205 14.6997 12.0939 14.8108L10.8582 16.0465C10.3954 16.5093 9.92945 16.7438 9.46046 16.75C8.99456 16.7531 8.53328 16.5263 8.07663 16.0696L6.36419 14.3572C6.25003 14.243 6.13124 14.2106 6.00782 14.26C5.88749 14.3063 5.8011 14.4359 5.74864 14.6488C5.69619 14.874 5.62831 15.0746 5.545 15.2504C5.45861 15.4232 5.33673 15.5883 5.17937 15.7456C4.92945 15.9956 4.64096 16.173 4.3139 16.2779C3.98684 16.3766 3.64898 16.3843 3.30033 16.301C2.94858 16.2146 2.61535 16.0141 2.30063 15.6994Z" fill="_COLOR_VAR_"/>
</svg>

<svg xmlns="http://www.w3.org/2000/svg" width="18" height="18"><path d="M2.3 15.7q-.476-.477-.601-1a1.85 1.85 0 0 1 .023-1.014q.153-.495.528-.87.236-.236.5-.361.258-.13.597-.208.319-.08.388-.26.074-.185-.097-.356L1.926 9.92q-.68-.681-.676-1.38.004-.708.699-1.402l1.236-1.236q.166-.165.351-.092.186.064.264.384.079.347.204.611.124.255.36.49.375.375.87.528.492.149 1.014.023.528-.13 1-.601.473-.473.597-.995a1.85 1.85 0 0 0-.023-1.014 2.1 2.1 0 0 0-.528-.87 1.9 1.9 0 0 0-.49-.361 2.7 2.7 0 0 0-.606-.208q-.32-.08-.39-.26-.068-.19.098-.356l1.236-1.236q.69-.689 1.397-.694.704-.009 1.384.671l1.713 1.713q.17.171.352.101.185-.073.259-.388.082-.344.213-.602.125-.263.356-.495.38-.38.87-.528a1.84 1.84 0 0 1 1.018-.028q.523.126 1 .602.472.472.602 1 .125.523-.028 1.018-.153.486-.532.865a1.9 1.9 0 0 1-.491.361 3 3 0 0 1-.606.209q-.315.075-.39.259-.068.18.103.352l1.712 1.712q.685.686.676 1.389t-.699 1.393l-1.236 1.235q-.166.166-.351.102-.18-.07-.26-.389a2.7 2.7 0 0 0-.208-.606 1.9 1.9 0 0 0-.36-.49q-.375-.375-.871-.528a1.8 1.8 0 0 0-1.014-.023q-.522.124-.995.597-.472.472-.601 1-.13.518.023 1.013.152.495.527.87.237.237.491.361.264.124.611.204.319.078.384.264.07.18-.097.347l-1.236 1.236q-.695.694-1.398.703-.698.004-1.383-.68l-1.713-1.713q-.171-.17-.356-.097-.18.07-.26.389-.078.338-.203.601a1.9 1.9 0 0 1-.366.496q-.375.375-.865.532A1.9 1.9 0 0 1 3.3 16.3q-.527-.13-1-.602"/></svg>
